X: 1
T: John Egan's
M: 2/4
L: 1/8
R: polka
K: Dmaj
AF A>d | BG B>d | Ad f>d | ed B/c/d/B/ |
AF A>d | BG B>d | Ad f>d | ed d2 :|
Ad f>g | fe ed | ef ga | ba f2 |
Ad f>g | fe ed | ef af | ed d2 :|
